app/img/svg/phone.svg

<svg xmlns="http://www.w3.org/2000/svg" width="41" height="40"><defs><clipPath id="cp1"><path d="M1 1h39v39H1z"/></clipPath></defs><style></style><g id="Page 1" clip-path="url(#cp1)"><path id="Path 1" fill-rule="evenodd" d="M23.16 14.56v-2.05c0-1.13.92-2.05 2.05-2.05s2.05.92 2.05 2.05v2.05l11.07 11.82c.77.76 1.24 1.79 1.24 2.94v3.3c0 1.81-1.47 3.28-3.28 3.28h-.82v2.05c0 1.13-.92 2.05-2.06 2.05a2.05 2.05 0 0 1-2.04-2.05V35.9H10.03v2.05c0 1.13-.92 2.05-2.05 2.05s-2.05-.92-2.05-2.05V35.9H5.1c-1.81 0-3.28-1.47-3.28-3.28v-3.3c0-1.15.48-2.18 1.24-2.94l11.08-11.82v-2.05c0-1.13.91-2.05 2.04-2.05s2.05.92 2.05 2.05v2.05h4.93zm-9.02 10.67c0 3.63 2.93 6.56 6.56 6.56 3.62 0 6.56-2.93 6.56-6.56a6.56 6.56 0 1 0-13.12 0zm9.84 0c0 1.81-1.47 3.28-3.28 3.28-1.82 0-3.29-1.47-3.29-3.28 0-1.82 1.47-3.28 3.29-3.28 1.81 0 3.28 1.47 3.28 3.28zM37.3 4.37c2.11 2.08 2.82 5.75 3.06 8.07 0 0 .04.23.04.33 0 .91-.75 1.64-1.65 1.64-.1 0-4.05-.33-6.43-.52-.06-.01-.12-.02-.17-.03a1.65 1.65 0 0 1-1.61-1.65V8.98c0-1-.82-1.8-1.82-1.8H12.67c-1 0-1.82.8-1.82 1.8v3.23c0 .9-.72 1.62-1.6 1.64-.06.02-.12.03-.18.04-2.37.19-6.32.51-6.43.51-.9 0-1.64-.73-1.64-1.63 0-.11.03-.33.03-.33.24-2.33.95-5.99 3.06-8.07C6.65 1.87 13.68.61 20.7.61c7.01 0 14.05 1.26 16.6 3.76z" fill="#fff"/></g></svg>

<svg xmlns="http://www.w3.org/2000/svg" viewBox="0 0 41 40" width="41" height="40">
	<defs>
		<clipPath clipPathUnits="userSpaceOnUse" id="cp1">
			<path d="M1 1L40 1L40 40L1 40Z" />
		</clipPath>
	</defs>
	<style>
		tspan { white-space:pre }
		.shp0 { fill: #ffffff } 
	</style>
	<g id="Page 1" clip-path="url(#cp1)">
		<path id="Path 1" fill-rule="evenodd" class="shp0" d="M23.16 14.56L23.16 12.51C23.16 11.38 24.08 10.46 25.21 10.46C26.34 10.46 27.26 11.38 27.26 12.51L27.26 14.56L38.33 26.38C39.1 27.14 39.57 28.17 39.57 29.32L39.57 32.62C39.57 34.43 38.1 35.9 36.29 35.9L35.47 35.9L35.47 37.95C35.47 39.08 34.55 40 33.41 40C32.29 40 31.37 39.08 31.37 37.95L31.37 35.9L10.03 35.9L10.03 37.95C10.03 39.08 9.11 40 7.98 40C6.85 40 5.93 39.08 5.93 37.95L5.93 35.9L5.1 35.9C3.29 35.9 1.82 34.43 1.82 32.62L1.82 29.32C1.82 28.17 2.3 27.14 3.06 26.38L14.14 14.56L14.14 12.51C14.14 11.38 15.05 10.46 16.18 10.46C17.31 10.46 18.23 11.38 18.23 12.51L18.23 14.56L23.16 14.56ZM14.14 25.23C14.14 28.86 17.07 31.79 20.7 31.79C24.32 31.79 27.26 28.86 27.26 25.23C27.26 21.6 24.32 18.66 20.7 18.66C17.07 18.66 14.14 21.6 14.14 25.23ZM23.98 25.23C23.98 27.04 22.51 28.51 20.7 28.51C18.88 28.51 17.41 27.04 17.41 25.23C17.41 23.41 18.88 21.95 20.7 21.95C22.51 21.95 23.98 23.42 23.98 25.23ZM37.3 4.37C39.41 6.45 40.12 10.12 40.36 12.44C40.36 12.44 40.4 12.67 40.4 12.77C40.4 13.68 39.65 14.41 38.75 14.41C38.65 14.41 34.7 14.08 32.32 13.89C32.26 13.88 32.2 13.87 32.15 13.86C31.25 13.83 30.54 13.11 30.54 12.21L30.54 8.98C30.54 7.98 29.72 7.18 28.72 7.18L12.67 7.18C11.67 7.18 10.85 7.98 10.85 8.98L10.85 12.21C10.85 13.11 10.13 13.83 9.25 13.85C9.19 13.87 9.13 13.88 9.07 13.89C6.7 14.08 2.75 14.4 2.64 14.4C1.74 14.4 1 13.67 1 12.77C1 12.66 1.03 12.44 1.03 12.44C1.27 10.11 1.98 6.45 4.09 4.37C6.65 1.87 13.68 0.61 20.7 0.61C27.71 0.61 34.75 1.87 37.3 4.37Z" />
	</g>
</svg>
